X:1
T:An Chailleach sa Tornoig  "'The Old Hag at the Kiln' or 'Dinny Delaney
M:12/8
L:1/8
Q:80
C:arr. Kent Hiestand
S:Jig
K:HP
{gef}e2A{d}ABA{g}e2d{g}B2d|
{gef}e2A{d}ABA{g}d2e{g}dB{G}A|
{gef}e2A{d}ABA{gf}g2a{f}g2a|  !
{g}age{A}edB{g}d2e{g}dB{G}A|
{gef}e2A{d}ABA{gef}e2f{gde}d2f|
{gef}e2f{gde}d2f{g}B{d}B{e}B{g}dBA|  !
{gef}e2A{d}ABA{gf}g2a{f}g2a|
{g}age{A}edB{g}d2e{g}dB{G}A|] |:
age{A}edB{gf}g2aefg|  !
age{A}edB{g}d2e{g}dB{G}A|
age{A}edB{gf}g2a{f}g2a|
{g}age{A}edB{g}d2e{g}dB{G}A:|  !

